X:111 
T:Kennaw's (reel) 
T:Lawson's Favorite, Farewell to Leitrim
B:CRE3.126 (RÃÂÃÂÃÂÃÂ­l Mhic Chionnaith)
F:file ID: cre.3/111kennaw
N:1:According to the background material in "Drawing from the Well", 
"Kennaw" (also known as "Gna") was a well-respected fiddle teacher
in the North Kerry area many years ago. 
L:1/8
R:reel
Q:180
M:C
K:G
"D modal"
c|d2AG FDDF|Ecc2 Ecc2|(3dcB (3cBA BcAG|FGEF Dgfe|
d2AG FDDF|E2AB c2Bc|(3dcB cA BcAG|FGEG FDD:|
g|fdd2 fdad|fdd2 cdeg|fdd2 fdad|faeg fdde|
fdd2 add2|ecc2 gcc2|(3agf (3gfe fgec|dfaf g2fe||d8||

%%%

